X: 90
T: Sandy MacIntyre's Trip to Boston
T: Reel, A
C: John Campbell
L: 1/16
M: C|
K: A
|: F2| E4C2E2 A,2E2C2E2| A2c2e2f2 e2c2c2e2| f4a2f2 e2c2A2c2| d2B2c2A2 B2F2F2A2| 
E4C2E2 A,2E2C2E2| A2c2e2f2 e2c2c2e2| f4a2f2 e2c2B2c2| d2f2e2c2 A1A1A2A2:| 
|: f2| e2A2c4 e2c2B2c2| A2B2c2e2 f4f2a2| e2A2c4 e2c2B2c2| d2f2e2c2 B4B2f2| 
e2A2c4 e2c2B2c2| A2B2c2e2 f4f2g2| a2g2f2e2 f2g2a2f2| e2c2B2c2 A4A2:| 
D: Natalie MacMaster, My Roots Are Showing
D: Rodney Macdonald, Dancer's Delight, RMD1, 1995
D: Donny LeBlanc, Rosining Up the Bow
